public/cloud-icons/azure/networking/route-filter.svg

<?xml version="1.0" encoding="UTF-8" standalone="no"?>
<!-- Generated by Microsoft Visio, SVG Export Route Filter.svg Page-1 -->

<svg
   xmlns:dc="http://purl.org/dc/elements/1.1/"
   xmlns:cc="http://creativecommons.org/ns#"
   xmlns:rdf="http://www.w3.org/1999/02/22-rdf-syntax-ns#"
   xmlns:svg="http://www.w3.org/2000/svg"
   xmlns="http://www.w3.org/2000/svg"
   xmlns:sodipodi="http://sodipodi.sourceforge.net/DTD/sodipodi-0.dtd"
   xmlns:inkscape="http://www.inkscape.org/namespaces/inkscape"
   width="0.7874431in"
   height="0.47236195in"
   viewBox="0 0 56.695811 34.009995"
   xml:space="preserve"
   class="st4"
   version="1.1"
   id="svg54"
   sodipodi:docname="Route Filter.svg"
   style="font-size:12px;overflow:visible;color-interpolation-filters:sRGB;fill:none;fill-rule:evenodd;stroke-linecap:square;stroke-miterlimit:3"
   inkscape:version="0.92.5 (2060ec1f9f, 2020-04-08)"><metadata
   id="metadata58"><rdf:RDF><cc:Work
       rdf:about=""><dc:format>image/svg+xml</dc:format><dc:type
         rdf:resource="http://purl.org/dc/dcmitype/StillImage" /></cc:Work></rdf:RDF></metadata><sodipodi:namedview
   pagecolor="#ffffff"
   bordercolor="#666666"
   borderopacity="1"
   objecttolerance="10"
   gridtolerance="10"
   guidetolerance="10"
   inkscape:pageopacity="0"
   inkscape:pageshadow="2"
   inkscape:window-width="640"
   inkscape:window-height="480"
   id="namedview56"
   showgrid="false"
   inkscape:zoom="1.7347635"
   inkscape:cx="37.795388"
   inkscape:cy="22.665095"
   inkscape:window-x="0"
   inkscape:window-y="0"
   inkscape:window-maximized="0"
   inkscape:current-layer="svg54" />
	<style
   type="text/css"
   id="style2">
	<![CDATA[
		.st1 {fill:#0078d4;stroke:none;stroke-linecap:butt;stroke-width:34}
		.st2 {fill:url(#grad0-8);stroke:none;stroke-linecap:butt;stroke-width:34}
		.st3 {fill:#ffffff;stroke:none;stroke-linecap:butt;stroke-width:34}
		.st4 {fill:none;fill-rule:evenodd;font-size:12px;overflow:visible;stroke-linecap:square;stroke-miterlimit:3}
	]]>
	</style>

	<defs
   id="Patterns_And_Gradients">
		<linearGradient
   id="grad0-8"
   x1="0"
   y1="70.543201"
   x2="35.2716"
   y2="70.543201"
   gradientTransform="scale(1.037095,0.96423183)"
   gradientUnits="userSpaceOnUse">
			<stop
   offset="0"
   stop-color="#5e9624"
   stop-opacity="1"
   id="stop4" />
			<stop
   offset="0.01"
   stop-color="#5f9724"
   stop-opacity="1"
   id="stop6" />
			<stop
   offset="0.35"
   stop-color="#6cab29"
   stop-opacity="1"
   id="stop8" />
			<stop
   offset="0.68"
   stop-color="#73b82c"
   stop-opacity="1"
   id="stop10" />
			<stop
   offset="1"
   stop-color="#76bc2d"
   stop-opacity="1"
   id="stop12" />
		</linearGradient>
	</defs>
	<g
   id="g52"
   transform="translate(-34,-34.0043)">
		<title
   id="title16">Page-1</title>
		<g
   id="group18825-1"
   transform="translate(34,-34.0157)">
			<title
   id="title18">Route Filter.18825</title>
			<g
   id="group18826-2">
				<title
   id="title20">Icon-networking-71</title>
				<g
   id="shape18827-3"
   transform="translate(36.5801,-2.55574)">
					<title
   id="title22">Sheet.18827</title>
					<path
   d="m 19.99,88.07 -6.67,6.45 A 0.314262,0.304255 0 0 1 12.754328,94.276596 L 12.76,90.62 A 0.345688,0.334681 -180 0 0 12.414312,90.315745 L 1.41,90.32 8.27,96.71 a 0.282836,0.27383 -180 0 0 0.377115,0 L 10.56,94.82 a 0.25141,0.243404 0 0 1 0.439967,0.182553 L 11,101.67 a 0.377115,0.365106 0 0 1 -0.377115,0.36511 L 3.87,102.03 A 0.25141,0.243404 0 0 1 3.681443,101.60404 L 5.63,99.75 a 0.282836,0.27383 -180 0 0 0,-0.365106 L 0,93.66 V 82.01 l 5.75,-5.54 a 0.25141,0.243404 -180 0 0 0,-0.334681 L 3.8,74.28 A 0.25141,0.243404 0 0 1 3.988557,73.854043 L 10.87,73.86 a 0.408541,0.395532 0 0 1 0.377115,0.395532 L 11.25,80.73 a 0.25141,0.243404 0 0 1 -0.439967,0.182553 L 8.89,79.06 a 0.282836,0.27383 -180 0 0 -0.377115,0 L 1.51,85.48 h 10.78 a 0.345688,0.334681 -180 0 0 0.345688,-0.334681 L 12.63,81.49 a 0.314262,0.304255 0 0 1 0.565672,-0.243404 L 19.99,87.58 a 0.314262,0.304255 0 0 1 0,0.486809 z"
   class="st1"
   id="path24"
   inkscape:connector-curvature="0"
   style="fill:#0078d4;stroke:none;stroke-width:34;stroke-linecap:butt" />
				</g>
				<g
   id="shape18828-5">
					<title
   id="title27">Sheet.18828</title>
					<path
   d="m 0,100.27 a 1.82276,1.76472 -180 0 0 1.82,1.76 h 32.94 a 1.82276,1.76472 -180 0 0 1.82,-1.76 V 69.78 A 1.82276,1.76472 -180 0 0 34.76,68.02 H 1.82 A 1.82276,1.76472 -180 0 0 0,69.78 Z"
   class="st2"
   id="path29"
   inkscape:connector-curvature="0"
   style="fill:url(#grad0-8);stroke:none;stroke-width:34;stroke-linecap:butt" />
				</g>
				<g
   id="group18829-9"
   transform="translate(7.13375,-4.1683)">
					<title
   id="title32">Sheet.18829</title>
					<g
   id="shape18830-10"
   transform="translate(0,-17.7381)">
						<title
   id="title34">Sheet.18830</title>
						<path
   d="m 0,101.15 a 0.911382,0.882361 -180 0 0 0.911361,0.88234 L 7.67,102.03 a 0.911382,0.882361 -180 0 0 0.911361,-0.88234 L 8.58,94.97 A 0.911382,0.882361 -180 0 0 7.668639,94.087659 L 0.91,94.09 a 0.911382,0.882361 -180 0 0 -0.911361,0.882341 z"
   class="st3"
   id="path36"
   inkscape:connector-curvature="0"
   style="fill:#ffffff;stroke:none;stroke-width:34;stroke-linecap:butt" />
					</g>
					<g
   id="shape18831-12"
   transform="translate(14.6132,-8.64085)">
						<title
   id="title39">Sheet.18831</title>
						<path
   d="m 0,101.15 a 0.911382,0.882361 -180 0 0 0.911361,0.88234 L 7.67,102.03 a 0.911382,0.882361 -180 0 0 0.911361,-0.88234 L 8.58,94.97 A 0.911382,0.882361 -180 0 0 7.668639,94.087659 L 0.91,94.09 a 0.911382,0.882361 -180 0 0 -0.911361,0.882341 z"
   class="st3"
   id="path41"
   inkscape:connector-curvature="0"
   style="fill:#ffffff;stroke:none;stroke-width:34;stroke-linecap:butt" />
					</g>
					<g
   id="shape18832-14">
						<title
   id="title44">Sheet.18832</title>
						<path
   d="m 0,101.15 a 0.911382,0.882361 -180 0 0 0.911361,0.88234 L 7.67,102.03 a 0.911382,0.882361 -180 0 0 0.911361,-0.88234 L 8.58,94.97 A 0.911382,0.882361 -180 0 0 7.668639,94.087659 L 0.91,94.09 a 0.911382,0.882361 -180 0 0 -0.911361,0.882341 z"
   class="st3"
   id="path46"
   inkscape:connector-curvature="0"
   style="fill:#ffffff;stroke:none;stroke-width:34;stroke-linecap:butt" />
					</g>
				</g>
			</g>
		</g>
	</g>
</svg>

<svg xmlns="http://www.w3.org/2000/svg" xml:space="preserve" width="75.595" height="45.347" style="font-size:12px;overflow:visible;color-interpolation-filters:sRGB;fill-rule:evenodd;stroke-linecap:square;stroke-miterlimit:3" viewBox="0 0 56.696 34.01"><defs><linearGradient id="a" x1="0" x2="35.272" y1="70.543" y2="70.543" gradientTransform="scale(1.0371 .96423)" gradientUnits="userSpaceOnUse"><stop offset="0" stop-color="#5e9624"/><stop offset=".01" stop-color="#5f9724"/><stop offset=".35" stop-color="#6cab29"/><stop offset=".68" stop-color="#73b82c"/><stop offset="1" stop-color="#76bc2d"/></linearGradient></defs><g transform="translate(-34 -34.004)"><title>Page-1</title><g transform="translate(34 -34.016)"><title>Route Filter.18825</title><title>Icon-networking-71</title><g transform="translate(36.58 -2.556)"><title>Sheet.18827</title><path d="m19.99 88.07-6.67 6.45a.314.304 0 0 1-.566-.243l.006-3.657a.346.335-180 0 0-.346-.304L1.41 90.32l6.86 6.39a.283.274-180 0 0 .377 0l1.913-1.89a.251.243 0 0 1 .44.183v6.667a.377.365 0 0 1-.377.365l-6.753-.005a.251.243 0 0 1-.189-.426L5.63 99.75a.283.274-180 0 0 0-.365L0 93.66V82.01l5.75-5.54a.251.243-180 0 0 0-.335L3.8 74.28a.251.243 0 0 1 .189-.426l6.881.006a.409.396 0 0 1 .377.396l.003 6.474a.251.243 0 0 1-.44.183L8.89 79.06a.283.274-180 0 0-.377 0L1.51 85.48h10.78a.346.335-180 0 0 .346-.335l-.006-3.655a.314.304 0 0 1 .566-.243l6.794 6.333a.314.304 0 0 1 0 .487z" style="fill:#0078d4;stroke:none;stroke-width:34;stroke-linecap:butt"/></g><title>Sheet.18828</title><path d="M0 100.27a1.823 1.765-180 0 0 1.82 1.76h32.94a1.823 1.765-180 0 0 1.82-1.76V69.78a1.823 1.765-180 0 0-1.82-1.76H1.82A1.823 1.765-180 0 0 0 69.78Z" style="fill:url(#a);stroke:none;stroke-width:34;stroke-linecap:butt"/><g transform="translate(7.134 -4.168)"><title>Sheet.18829</title><g transform="translate(0 -17.738)"><title>Sheet.18830</title><path d="M0 101.15a.911.882-180 0 0 .911.882l6.759-.002a.911.882-180 0 0 .911-.882L8.58 94.97a.911.882-180 0 0-.911-.882L.91 94.09a.911.882-180 0 0-.911.882z" style="fill:#fff;stroke:none;stroke-width:34;stroke-linecap:butt"/></g><g transform="translate(14.613 -8.64)"><title>Sheet.18831</title><path d="M0 101.15a.911.882-180 0 0 .911.882l6.759-.002a.911.882-180 0 0 .911-.882L8.58 94.97a.911.882-180 0 0-.911-.882L.91 94.09a.911.882-180 0 0-.911.882z" style="fill:#fff;stroke:none;stroke-width:34;stroke-linecap:butt"/></g><title>Sheet.18832</title><path d="M0 101.15a.911.882-180 0 0 .911.882l6.759-.002a.911.882-180 0 0 .911-.882L8.58 94.97a.911.882-180 0 0-.911-.882L.91 94.09a.911.882-180 0 0-.911.882z" style="fill:#fff;stroke:none;stroke-width:34;stroke-linecap:butt"/></g></g></g></svg>
